assets/images/private_footer/melhor_envio.svg

<svg width="119" height="55" viewBox="0 0 119 55" fill="none" xmlns="http://www.w3.org/2000/svg">
<path fill-rule="evenodd" clip-rule="evenodd" d="M86.1388 13.558V16.1311C84.7807 16.1311 83.6794 17.2833 83.6794 18.7041V26.6742H81.2202V18.7041C81.2202 15.8619 83.4221 13.558 86.1388 13.558Z" fill="white"/>
<path fill-rule="evenodd" clip-rule="evenodd" d="M26.4915 13.558C24.9986 13.558 23.6596 14.2332 22.7441 15.3021C21.8285 14.2332 20.4895 13.558 18.9967 13.558C16.2369 13.558 14 15.8619 14 18.7041V26.6742H16.4983V18.7041C16.4983 17.2833 17.6171 16.1311 18.9967 16.1311C20.3762 16.1311 21.495 17.2833 21.495 18.7041V26.6742H23.9932V18.7041C23.9932 17.2833 25.112 16.1311 26.4915 16.1311C27.8711 16.1311 28.9899 17.2833 28.9899 18.7041V26.6742H31.4882V18.7041C31.4882 15.8619 29.2513 13.558 26.4915 13.558Z" fill="white"/>
<mask id="mask0" mask-type="alpha" maskUnits="userSpaceOnUse" x="47" y="7" width="6" height="20">
<path fill-rule="evenodd" clip-rule="evenodd" d="M47.9092 7.03711H52.8003V26.067H47.9092V7.03711Z" fill="white"/>
</mask>
<g mask="url(#mask0)">
<path fill-rule="evenodd" clip-rule="evenodd" d="M52.8003 26.067V23.5782C51.4499 23.5782 50.3547 22.4637 50.3547 21.0895V7.03705H47.9092V21.0895C47.9092 23.8386 50.0988 26.067 52.8003 26.067Z" fill="white"/>
</g>
<path fill-rule="evenodd" clip-rule="evenodd" d="M59.36 13.3554C58.4637 13.3554 57.6243 13.6009 56.9006 14.0275V7H54.4414V18.3666V26.1277H56.9006V18.3666C56.9006 16.983 58.0019 15.8611 59.36 15.8611C60.7179 15.8611 61.8193 16.983 61.8193 18.3666V26.1277H64.2785V18.3666C64.2785 15.5989 62.0766 13.3554 59.36 13.3554Z" fill="white"/>
<path fill-rule="evenodd" clip-rule="evenodd" d="M39.4125 16.0333C41.0807 16.0333 42.4988 17.1057 43.0144 18.5983H35.8107C36.3262 17.1057 37.7444 16.0333 39.4125 16.0333ZM45.5741 18.5983C44.9965 15.7236 42.4575 13.558 39.4125 13.558C36.3676 13.558 33.8286 15.7236 33.251 18.5983C33.1703 19.0009 33.1277 19.4168 33.1277 19.8432C33.1277 20.2694 33.1703 20.686 33.251 21.0881C33.8292 23.9628 36.3676 26.1277 39.4125 26.1277C41.4852 26.1277 43.3228 25.1246 44.4676 23.5778L42.477 22.1071C41.7834 23.0447 40.669 23.6526 39.4125 23.6526C37.7444 23.6526 36.3262 22.5807 35.8107 21.0881H45.5741C45.6548 20.686 45.6973 20.2694 45.6973 19.8432C45.6973 19.4168 45.6548 19.0009 45.5741 18.5983Z" fill="white"/>
<path fill-rule="evenodd" clip-rule="evenodd" d="M73.0226 24.1039C70.8204 24.1039 69.035 22.3186 69.035 20.1162C69.035 17.9139 70.8204 16.1285 73.0226 16.1285C75.225 16.1285 77.0103 17.9139 77.0103 20.1162C77.0103 22.3186 75.225 24.1039 73.0226 24.1039ZM73.0226 13.558C69.4008 13.558 66.4646 16.4942 66.4646 20.1162C66.4646 23.7381 69.4008 26.6742 73.0226 26.6742C76.6445 26.6742 79.5807 23.7381 79.5807 20.1162C79.5807 16.4942 76.6445 13.558 73.0226 13.558Z" fill="white"/>
<mask id="mask1" mask-type="alpha" maskUnits="userSpaceOnUse" x="0" y="0" width="119" height="55">
<path fill-rule="evenodd" clip-rule="evenodd" d="M0.360107 54.7793H118.36V0.755188H0.360107V54.7793Z" fill="white"/>
</mask>
<g mask="url(#mask1)">
<path fill-rule="evenodd" clip-rule="evenodd" d="M81.2202 41.4299H83.4062V28.8602H81.2202V41.4299Z" fill="white"/>
<path fill-rule="evenodd" clip-rule="evenodd" d="M46.517 31.3355C48.1852 31.3355 49.6033 32.4078 50.1188 33.9005H42.9152C43.4307 32.4078 44.8488 31.3355 46.517 31.3355ZM52.6785 33.9005C52.101 31.0257 49.562 28.8602 46.517 28.8602C43.472 28.8602 40.933 31.0257 40.3555 33.9005C40.2747 34.303 40.2322 34.7191 40.2322 35.1453C40.2322 35.5717 40.2747 35.9882 40.3555 36.3902C40.9336 39.265 43.472 41.4299 46.517 41.4299C48.5897 41.4299 50.4273 40.4266 51.5721 38.88L49.5814 37.4093C48.8879 38.3468 47.7735 38.9546 46.517 38.9546C44.8488 38.9546 43.4307 37.8829 42.9152 36.3902H52.6785C52.7593 35.9882 52.8018 35.5717 52.8018 35.1453C52.8018 34.7191 52.7593 34.303 52.6785 33.9005Z" fill="white"/>
<path fill-rule="evenodd" clip-rule="evenodd" d="M59.36 28.8602C56.6433 28.8602 54.4414 31.164 54.4414 34.0062V41.9764H56.9006V34.0062C56.9006 32.5855 58.002 31.4333 59.36 31.4333C60.718 31.4333 61.8193 32.5855 61.8193 34.0062V41.9764H64.2785V34.0062C64.2785 31.164 62.0766 28.8602 59.36 28.8602Z" fill="white"/>
<path fill-rule="evenodd" clip-rule="evenodd" d="M91.604 39.4061C89.4016 39.4061 87.6163 37.6207 87.6163 35.4184C87.6163 33.216 89.4016 31.4306 91.604 31.4306C93.8063 31.4306 95.5916 33.216 95.5916 35.4184C95.5916 37.6207 93.8063 39.4061 91.604 39.4061ZM91.604 28.8602C87.9821 28.8602 85.0459 31.7964 85.0459 35.4184C85.0459 39.0402 87.9821 41.9764 91.604 41.9764C95.2259 41.9764 98.162 39.0402 98.162 35.4184C98.162 31.7964 95.2259 28.8602 91.604 28.8602Z" fill="white"/>
<path fill-rule="evenodd" clip-rule="evenodd" d="M76.7419 29.4072L73.0235 38.4709L69.3043 29.4067L66.4646 29.4072L71.8692 41.9764H74.178L79.5807 29.4072H76.7419Z" fill="white"/>
<path fill-rule="evenodd" clip-rule="evenodd" d="M86.1388 13.558V16.1311C84.7807 16.1311 83.6794 17.2833 83.6794 18.7041V26.6742H81.2202V18.7041C81.2202 15.8619 83.4221 13.558 86.1388 13.558Z" fill="white"/>
<path fill-rule="evenodd" clip-rule="evenodd" d="M86.1388 13.558V16.1311C84.7807 16.1311 83.6794 17.2833 83.6794 18.7041V26.6742H81.2202V18.7041C81.2202 15.8619 83.4221 13.558 86.1388 13.558Z" fill="white"/>
<path fill-rule="evenodd" clip-rule="evenodd" d="M104.706 28.5502L104.706 28.5384C104.649 27.7954 104.376 27.0837 103.896 26.423L103.879 26.4004C102.534 24.6412 100.326 24.4834 98.2964 24.4339C99.2682 23.01 100.54 20.9672 100.584 18.3387C100.63 16.4804 100.059 14.8617 98.9783 13.7805C98.5915 13.3935 98.0925 13.0532 97.5731 12.8224C97.0473 12.5886 96.5156 12.4728 95.9488 12.4688C94.8397 12.4195 93.7308 12.866 92.9008 13.6963C92.0452 14.5521 91.7787 15.5648 91.5437 16.4582L91.5352 16.4928L91.5318 16.5076C91.3765 17.1759 91.0798 17.803 90.6682 18.3518L90.0741 19.1442L89.8828 19.3738L89.8457 19.4207C89.8055 19.4744 89.7584 19.5293 89.704 19.5929C89.6413 19.666 89.5711 19.7478 89.4962 19.8452C89.0217 20.3868 88.4484 21.015 87.7808 21.5994L87.7606 21.6175C87.1148 22.2097 86.4052 22.8136 85.7842 23.3221V25.0498V26.1667C85.7842 26.1667 88.2943 24.3091 89.3352 23.3555C90.1142 22.6723 90.7589 21.9635 91.2872 21.3597L91.3427 21.2912C91.3829 21.2376 91.4299 21.1827 91.4843 21.1192C91.5497 21.0429 91.6233 20.9571 91.7018 20.8542L91.8948 20.6225L92.7052 19.5234C93.1626 18.9031 93.5051 18.2052 93.7088 17.4618C93.7464 17.3251 93.782 17.1839 93.8159 17.0381C93.9965 16.3515 94.1549 15.7588 94.5589 15.3546C94.6497 15.2639 94.7762 15.1845 94.9149 15.1167C95.1868 14.9836 95.8328 14.8312 96.3875 14.9445C96.8669 15.0424 97.278 15.3966 97.3202 15.4388C97.9345 16.0533 98.2697 17.0906 98.2398 18.2849L98.2396 18.2953C98.2051 20.4384 97.0046 22.1783 96.1278 23.4489L96.024 23.5996C95.6392 24.0976 95.3677 24.5394 95.1457 25.0278L94.4525 26.5536L96.1232 26.6822C96.4192 26.7049 96.7088 26.7161 96.9889 26.7269C97.2588 26.7373 97.5135 26.7471 97.7647 26.7664L97.8302 26.7696C99.6658 26.8077 101.252 26.8407 102.008 27.8142C102.225 28.1167 102.343 28.4107 102.367 28.7126C102.398 29.1867 102.336 29.6463 102.183 30.0789C101.87 30.9175 101.793 31.8638 101.959 32.817C102.022 33.2361 102.022 33.6566 101.959 34.0344L101.956 34.0533C101.87 34.6272 101.605 35.2138 101.168 35.797C101.026 35.9855 100.827 36.287 100.68 36.6544L100.657 36.719C100.536 37.0798 100.47 37.4957 100.47 37.8897C100.47 38.2631 100.29 38.8101 100.128 39.2254C99.9749 39.6185 99.7658 39.9876 99.5074 40.3209C99.2947 40.5954 99.0282 40.9086 98.8147 41.0611L98.7635 41.0996C98.5487 41.2717 98.2599 41.5356 98.0343 41.8611L97.9918 41.9036L97.9251 42.0057C97.0777 43.3038 96.5565 44.102 95.7661 44.7579C95.1106 45.3018 94.3327 45.6778 93.506 45.8827C93.2545 45.9452 93.0093 45.9972 92.7695 46.0318C92.1619 46.1128 91.5879 46.1891 91.0362 46.1891C89.0093 46.1891 87.0092 45.9459 85.0912 45.4664L85.0733 45.462C84.0058 45.2129 82.5882 44.9082 81.0897 44.7633L80.0845 44.7578L40.4198 44.7596C40.1768 44.7596 40.1664 45.1204 40.4089 45.1344L80.9193 47.103C82.2566 47.2366 83.5495 47.5148 84.5318 47.744C86.6327 48.2685 88.821 48.5345 91.0362 48.5345C91.7452 48.5345 92.4264 48.4436 93.0852 48.3558L93.096 48.3542C93.4257 48.3072 94.028 48.157 94.5131 48.0287C95.0958 47.8745 95.6549 47.6403 96.1716 47.33C97.9108 46.2855 98.6859 45.1293 99.8218 43.3901L99.9544 43.2078C99.9798 43.1655 100.067 43.063 100.208 42.9478C100.902 42.445 101.468 41.7961 101.892 41.0177C102.496 40.0915 102.815 39.0113 102.815 37.8897C102.815 37.7621 102.837 37.6108 102.871 37.4937C102.911 37.4022 102.975 37.2963 103.044 37.204C103.714 36.3094 104.128 35.3697 104.274 34.4105C104.378 33.7809 104.378 33.121 104.274 32.4492L104.27 32.4238C104.175 31.8826 104.215 31.3387 104.382 30.8922L104.388 30.8751C104.653 30.134 104.76 29.3517 104.706 28.5502Z" fill="white"/>
</g>
</svg>

<?xml version="1.0" encoding="utf-8"?>
<!-- Generator: Adobe Illustrator 16.0.3, SVG Export Plug-In . SVG Version: 6.00 Build 0)  -->
<!DOCTYPE svg PUBLIC "-//W3C//DTD SVG 1.1//EN" "http://www.w3.org/Graphics/SVG/1.1/DTD/svg11.dtd">
<svg version="1.1" id="Layer_1" xmlns="http://www.w3.org/2000/svg" xmlns:xlink="http://www.w3.org/1999/xlink" x="0px" y="0px"
	 width="119px" height="55px" viewBox="0 0 119 55" enable-background="new 0 0 119 55" xml:space="preserve">
<path fill="#FFFFFF" d="M86.139,13.558v2.573c-1.357,0-2.459,1.152-2.459,2.573v7.97h-2.459v-7.97
	C81.221,15.862,83.422,13.558,86.139,13.558z"/>
<path fill="#FFFFFF" d="M26.492,13.558c-1.493,0-2.832,0.675-3.748,1.744c-0.916-1.069-2.255-1.744-3.748-1.744
	c-2.76,0-4.997,2.304-4.997,5.146v7.97h2.499v-7.97c0-1.421,1.119-2.573,2.498-2.573s2.499,1.152,2.499,2.573v7.97h2.498v-7.97
	c0-1.421,1.119-2.573,2.499-2.573c1.379,0,2.498,1.152,2.498,2.573v7.97h2.499v-7.97C31.488,15.862,29.251,13.558,26.492,13.558z"/>
<defs>
	<filter id="Adobe_OpacityMaskFilter" filterUnits="userSpaceOnUse" x="47.909" y="7.037" width="4.891" height="19.03">
		<feColorMatrix  type="matrix" values="1 0 0 0 0  0 1 0 0 0  0 0 1 0 0  0 0 0 1 0"/>
	</filter>
</defs>
<mask maskUnits="userSpaceOnUse" x="47.909" y="7.037" width="4.891" height="19.03" id="mask0">
	<path fill="#FFFFFF" filter="url(#Adobe_OpacityMaskFilter)" d="M47.909,7.037H52.8v19.03h-4.891V7.037z"/>
</mask>
<g mask="url(#mask0)">
	<path fill="#FFFFFF" d="M52.8,26.067v-2.489c-1.351,0-2.446-1.114-2.446-2.489V7.037h-2.445v14.052
		C47.909,23.839,50.099,26.067,52.8,26.067z"/>
</g>
<path fill="#FFFFFF" d="M59.36,13.355c-0.896,0-1.735,0.246-2.459,0.672V7h-2.459v11.367v7.761H56.9v-7.761
	c0-1.384,1.102-2.505,2.459-2.505s2.459,1.122,2.459,2.505v7.761h2.459v-7.761C64.278,15.599,62.076,13.355,59.36,13.355z"/>
<path fill="#FFFFFF" d="M39.413,16.033c1.668,0,3.086,1.072,3.602,2.565h-7.204C36.326,17.105,37.745,16.033,39.413,16.033z
	 M45.574,18.598c-0.578-2.875-3.117-5.04-6.162-5.04s-5.584,2.166-6.162,5.04c-0.081,0.403-0.123,0.819-0.123,1.245
	s0.042,0.843,0.123,1.245c0.578,2.875,3.117,5.04,6.162,5.04c2.073,0,3.91-1.003,5.055-2.55l-1.991-1.471
	c-0.694,0.938-1.808,1.545-3.064,1.545c-1.668,0-3.086-1.072-3.602-2.564h9.764c0.081-0.402,0.123-0.818,0.123-1.245
	S45.655,19.001,45.574,18.598z"/>
<path fill="#FFFFFF" d="M73.022,24.104c-2.202,0-3.987-1.786-3.987-3.988s1.785-3.988,3.987-3.988s3.987,1.786,3.987,3.988
	S75.225,24.104,73.022,24.104z M73.022,13.558c-3.622,0-6.558,2.936-6.558,6.558s2.936,6.558,6.558,6.558s6.558-2.936,6.558-6.558
	S76.645,13.558,73.022,13.558z"/>
<defs>
	<filter id="Adobe_OpacityMaskFilter_1_" filterUnits="userSpaceOnUse" x="40.232" y="12.465" width="64.487" height="36.07">
		<feColorMatrix  type="matrix" values="1 0 0 0 0  0 1 0 0 0  0 0 1 0 0  0 0 0 1 0"/>
	</filter>
</defs>
<mask maskUnits="userSpaceOnUse" x="40.232" y="12.465" width="64.487" height="36.07" id="mask1">
	<path fill="#FFFFFF" filter="url(#Adobe_OpacityMaskFilter_1_)" d="M0.36,54.779h118V0.755h-118V54.779z"/>
</mask>
<g mask="url(#mask1)">
	<path fill="#FFFFFF" d="M81.221,41.43h2.186V28.86h-2.186V41.43z"/>
	<path fill="#FFFFFF" d="M46.517,31.336c1.668,0,3.086,1.072,3.602,2.564h-7.204C43.431,32.408,44.849,31.336,46.517,31.336z
		 M52.679,33.9c-0.578-2.875-3.117-5.04-6.162-5.04s-5.584,2.165-6.162,5.04c-0.081,0.402-0.123,0.818-0.123,1.245
		s0.042,0.843,0.123,1.245c0.578,2.875,3.117,5.039,6.162,5.039c2.073,0,3.91-1.003,5.055-2.55l-1.991-1.471
		c-0.694,0.938-1.808,1.546-3.064,1.546c-1.668,0-3.086-1.072-3.602-2.564h9.764c0.081-0.402,0.123-0.818,0.123-1.245
		S52.759,34.303,52.679,33.9z"/>
	<path fill="#FFFFFF" d="M59.36,28.86c-2.717,0-4.918,2.304-4.918,5.146v7.971H56.9v-7.971c0-1.42,1.102-2.572,2.459-2.572
		s2.459,1.152,2.459,2.572v7.971h2.459v-7.971C64.278,31.164,62.076,28.86,59.36,28.86z"/>
	<path fill="#FFFFFF" d="M91.604,39.406c-2.202,0-3.987-1.785-3.987-3.988c0-2.202,1.785-3.987,3.987-3.987
		c2.203,0,3.988,1.785,3.988,3.987C95.592,37.621,93.807,39.406,91.604,39.406z M91.604,28.86c-3.621,0-6.558,2.937-6.558,6.558
		c0,3.622,2.937,6.559,6.558,6.559c3.623,0,6.559-2.937,6.559-6.559C98.162,31.797,95.227,28.86,91.604,28.86z"/>
	<path fill="#FFFFFF" d="M76.742,29.407l-3.719,9.063l-3.719-9.064l-2.84,0.001l5.404,12.569h2.309l5.402-12.569H76.742z"/>
	<path fill="#FFFFFF" d="M86.139,13.558v2.573c-1.357,0-2.459,1.152-2.459,2.573v7.97h-2.459v-7.97
		C81.221,15.862,83.422,13.558,86.139,13.558z"/>
	<path fill="#FFFFFF" d="M86.139,13.558v2.573c-1.357,0-2.459,1.152-2.459,2.573v7.97h-2.459v-7.97
		C81.221,15.862,83.422,13.558,86.139,13.558z"/>
	<path fill="#FFFFFF" d="M104.706,28.551v-0.012c-0.058-0.744-0.33-1.456-0.81-2.116l-0.018-0.022
		c-1.345-1.759-3.553-1.917-5.582-1.966c0.971-1.424,2.243-3.467,2.287-6.095c0.046-1.858-0.525-3.477-1.605-4.559
		c-0.387-0.387-0.887-0.727-1.405-0.958c-0.526-0.233-1.058-0.35-1.624-0.354c-1.109-0.049-2.219,0.397-3.049,1.228
		c-0.855,0.856-1.121,1.869-1.356,2.762l-0.009,0.035l-0.004,0.015c-0.154,0.668-0.451,1.295-0.863,1.844l-0.594,0.792l-0.191,0.23
		l-0.037,0.047c-0.04,0.054-0.088,0.108-0.142,0.172c-0.063,0.073-0.133,0.155-0.208,0.252c-0.475,0.542-1.048,1.17-1.715,1.754
		l-0.021,0.018c-0.646,0.592-1.355,1.196-1.977,1.705v1.728v1.117c0,0,2.511-1.857,3.551-2.811c0.779-0.683,1.424-1.392,1.952-1.996
		l0.056-0.069c0.04-0.053,0.087-0.108,0.142-0.172c0.065-0.076,0.139-0.162,0.217-0.265l0.193-0.231l0.811-1.099
		c0.457-0.62,0.8-1.318,1.004-2.062c0.037-0.137,0.073-0.278,0.107-0.424c0.18-0.687,0.338-1.279,0.742-1.684
		c0.092-0.091,0.218-0.17,0.356-0.238c0.272-0.133,0.918-0.286,1.473-0.172c0.479,0.098,0.89,0.452,0.933,0.495
		c0.614,0.614,0.949,1.652,0.92,2.846v0.01c-0.035,2.143-1.236,3.883-2.112,5.153L96.023,23.6c-0.385,0.498-0.656,0.94-0.878,1.428
		l-0.692,1.526l1.67,0.128c0.297,0.023,0.586,0.034,0.865,0.045c0.271,0.01,0.525,0.02,0.776,0.04l0.065,0.003
		c1.836,0.038,3.422,0.071,4.178,1.045c0.217,0.303,0.335,0.596,0.359,0.898c0.031,0.474-0.031,0.934-0.184,1.366
		c-0.313,0.839-0.391,1.784-0.225,2.737c0.063,0.42,0.063,0.84,0,1.218l-0.003,0.019c-0.086,0.574-0.351,1.161-0.788,1.744
		c-0.143,0.188-0.341,0.49-0.488,0.857l-0.022,0.064c-0.121,0.361-0.187,0.777-0.187,1.171c0,0.374-0.181,0.921-0.343,1.336
		c-0.153,0.394-0.362,0.763-0.62,1.095c-0.213,0.275-0.479,0.588-0.693,0.74L98.764,41.1c-0.215,0.172-0.504,0.436-0.729,0.762
		l-0.042,0.043l-0.066,0.102c-0.848,1.298-1.369,2.096-2.16,2.752c-0.654,0.544-1.434,0.92-2.26,1.125
		c-0.252,0.063-0.496,0.114-0.736,0.148c-0.607,0.082-1.182,0.158-1.733,0.158c-2.026,0-4.026-0.244-5.944-0.723l-0.019-0.005
		c-1.067-0.249-2.485-0.554-3.983-0.698l-1.006-0.006L40.42,44.76c-0.243,0-0.253,0.361-0.011,0.375l40.511,1.969
		c1.337,0.133,2.629,0.411,3.611,0.641c2.102,0.524,4.289,0.791,6.505,0.791c0.709,0,1.39-0.092,2.049-0.18l0.011-0.002
		c0.33-0.047,0.932-0.196,1.418-0.324c0.582-0.154,1.141-0.389,1.658-0.699c1.738-1.045,2.514-2.201,3.65-3.939l0.133-0.183
		c0.025-0.042,0.111-0.146,0.253-0.261c0.694-0.502,1.26-1.151,1.685-1.93c0.604-0.926,0.922-2.006,0.922-3.128
		c0-0.128,0.022-0.278,0.057-0.396c0.04-0.092,0.104-0.197,0.173-0.29c0.67-0.895,1.084-1.835,1.229-2.794
		c0.104-0.629,0.104-1.289,0-1.961l-0.004-0.025c-0.095-0.541-0.055-1.085,0.112-1.531l0.007-0.018
		C104.652,30.134,104.76,29.352,104.706,28.551z"/>
</g>
</svg>
